svg/N_Arrows/24.svg

<svg xmlns="http://www.w3.org/2000/svg" viewBox="0 0 744.09 1052.36" xmlns:xlink="http://www.w3.org/1999/xlink"><defs><path id="0" d="m321.43 270.93h68.57v74.28h-68.57z"/></defs><g fill-rule="evenodd" stroke="#000"><path d="m270.23 451.04l32.16-96.35 32.16 96.35 96.49 32.12-96.49 32.12-32.16 96.35-32.16-96.35-96.49-32.12 96.49-32.12z" fill="none" stroke-width="6.428"/><path d="m332.49 447.94l-27.14 32.26v-116.13l27.14 83.87z" stroke-width="5.917"/><path d="m334.86 510.9l-33.443-26.2h120.39l-86.951 26.2z" stroke-width="5.92"/><path d="m268.07 453.95l32.32 26.29h-116.37l84.04-26.29z" stroke-width="5.83"/><path d="m270.5 514.97l32.378-33.574v120.87l-32.378-87.29z" stroke-width="6.594"/></g><g font-family="Arial Black" font-size="56"><flowRoot transform="translate(123.91 182.35)"><flowRegion><use xlink:href="#0"/></flowRegion><flowPara>E</flowPara></flowRoot><flowRoot transform="translate(-39.901 351.05)"><flowRegion><use xlink:href="#0"/></flowRegion><flowPara>S</flowPara></flowRoot><flowRoot transform="translate(-43.13 19.716)"><flowRegion><use xlink:href="#0"/></flowRegion><flowPara>N</flowPara></flowRoot><flowRoot transform="translate(-220.28 181.34)"><flowRegion><use xlink:href="#0"/></flowRegion><flowPara>W</flowPara></flowRoot></g><g fill="none" stroke="#000" stroke-linecap="square"><path transform="translate(-137.86-64.16)" d="M450.35715 547.89789A8.392858 8.392858 0 1 1 433.57144 547.89789 8.392858 8.392858 0 1 1 450.35715 547.89789z" opacity=".97" stroke-width="20.468"/><path transform="matrix(1.53617 0 0 1.61666-295.37-435.06)" d="M406.07143 568.25507A15.714286 14.821428 0 1 1 374.64286 568.25507 15.714286 14.821428 0 1 1 406.07143 568.25507z" opacity=".97" stroke-width="5.468"/></g></svg>

<?xml version="1.0" encoding="UTF-8" standalone="no"?>
<!-- Created with Inkscape (http://www.inkscape.org/) -->
<svg
   xmlns:dc="http://purl.org/dc/elements/1.1/"
   xmlns:cc="http://web.resource.org/cc/"
   xmlns:rdf="http://www.w3.org/1999/02/22-rdf-syntax-ns#"
   xmlns:svg="http://www.w3.org/2000/svg"
   xmlns="http://www.w3.org/2000/svg"
   xmlns:sodipodi="http://sodipodi.sourceforge.net/DTD/sodipodi-0.dtd"
   xmlns:inkscape="http://www.inkscape.org/namespaces/inkscape"
   width="744.09448819"
   height="1052.3622047"
   id="svg2"
   sodipodi:version="0.32"
   inkscape:version="0.44.1"
   sodipodi:docbase="F:\QGIS_N_ARROWS\TOT"
   sodipodi:docname="FINALE.svg"
   inkscape:export-filename="F:\QGIS_N_ARROWS\TOT\FINALE.png"
   inkscape:export-xdpi="300"
   inkscape:export-ydpi="300">
  <defs
     id="defs4" />
  <sodipodi:namedview
     id="base"
     pagecolor="#ffffff"
     bordercolor="#666666"
     borderopacity="1.0"
     inkscape:pageopacity="0.0"
     inkscape:pageshadow="2"
     inkscape:zoom="0.49497475"
     inkscape:cx="375"
     inkscape:cy="520"
     inkscape:document-units="px"
     inkscape:current-layer="layer1"
     showguides="false"
     showgrid="true"
     inkscape:window-width="1280"
     inkscape:window-height="744"
     inkscape:window-x="-4"
     inkscape:window-y="-4" />
  <metadata
     id="metadata7">
    <rdf:RDF>
      <cc:Work
         rdf:about="">
        <dc:format>image/svg+xml</dc:format>
        <dc:type
           rdf:resource="http://purl.org/dc/dcmitype/StillImage" />
      </cc:Work>
    </rdf:RDF>
  </metadata>
  <g
     inkscape:label="Livello 1"
     inkscape:groupmode="layer"
     id="layer1">
    <g
       id="g4502">
      <path
         id="path1872"
         d="M 270.22876,451.0387 L 302.39096,354.68987 L 334.55315,451.0387 L 431.03974,483.15497 L 334.55315,515.27125 L 302.39096,611.62007 L 270.22876,515.27125 L 173.74218,483.15497 L 270.22876,451.0387 z "
         style="fill:none;fill-rule:evenodd;stroke:black;stroke-width:6.42784548px;stroke-linecap:butt;stroke-linejoin:miter;stroke-opacity:1" />
      <path
         id="path1892"
         d="M 332.48889,447.94051 L 305.35195,480.19858 L 305.35195,364.06953 L 332.48889,447.94051 z "
         style="fill:black;fill-opacity:1;fill-rule:evenodd;stroke:black;stroke-width:5.91738272px;stroke-linecap:butt;stroke-linejoin:miter;stroke-opacity:1" />
      <path
         id="path1894"
         d="M 334.86437,510.89705 L 301.42178,484.69684 L 421.81508,484.69684 L 334.86437,510.89705 z "
         style="fill:black;fill-opacity:1;fill-rule:evenodd;stroke:black;stroke-width:5.92014647px;stroke-linecap:butt;stroke-linejoin:miter;stroke-opacity:1" />
      <path
         id="path1896"
         d="M 268.07295,453.95177 L 300.39726,480.24184 L 184.0298,480.24184 L 268.07295,453.95177 z "
         style="fill:black;fill-opacity:1;fill-rule:evenodd;stroke:black;stroke-width:5.83029413px;stroke-linecap:butt;stroke-linejoin:miter;stroke-opacity:1" />
      <path
         id="path1898"
         d="M 270.50127,514.97334 L 302.87963,481.39902 L 302.87963,602.26659 L 270.50127,514.97334 z "
         style="fill:black;fill-opacity:1;fill-rule:evenodd;stroke:black;stroke-width:6.59418631px;stroke-linecap:butt;stroke-linejoin:miter;stroke-opacity:1" />
      <flowRoot
         transform="translate(123.9057,182.3509)"
         style="font-size:56px;font-family:Arial Black"
         id="flowRoot2029"
         xml:space="preserve"><flowRegion
           id="flowRegion2031"><rect
             style="font-size:56px;font-family:Arial Black"
             y="270.93362"
             x="321.42856"
             height="74.285713"
             width="68.571426"
             id="rect2033" /></flowRegion><flowPara
           id="flowPara2035">E</flowPara></flowRoot>      <flowRoot
         transform="translate(-39.90149,351.0464)"
         style="font-size:56px;font-family:Arial Black"
         id="flowRoot2037"
         xml:space="preserve"><flowRegion
           id="flowRegion2039"><rect
             style="font-size:56px;font-family:Arial Black"
             y="270.93362"
             x="321.42856"
             height="74.285713"
             width="68.571426"
             id="rect2041" /></flowRegion><flowPara
           id="flowPara2043">S</flowPara></flowRoot>      <flowRoot
         transform="translate(-43.12799,19.71645)"
         style="font-size:56px;font-family:Arial Black"
         id="flowRoot2045"
         xml:space="preserve"><flowRegion
           id="flowRegion2047"><rect
             style="font-size:56px;font-family:Arial Black"
             y="270.93362"
             x="321.42856"
             height="74.285713"
             width="68.571426"
             id="rect2049" /></flowRegion><flowPara
           id="flowPara2051">N</flowPara></flowRoot>      <flowRoot
         transform="translate(-220.276,181.3408)"
         style="font-size:56px;font-family:Arial Black"
         id="flowRoot2053"
         xml:space="preserve"><flowRegion
           id="flowRegion2055"><rect
             style="font-size:56px;font-family:Arial Black"
             y="270.93362"
             x="321.42856"
             height="74.285713"
             width="68.571426"
             id="rect2057" /></flowRegion><flowPara
           id="flowPara2059">W</flowPara></flowRoot>      <path
         transform="translate(-137.8571,-64.16256)"
         d="M 450.35715 547.89789 A 8.3928576 8.3928576 0 1 1  433.57144,547.89789 A 8.3928576 8.3928576 0 1 1  450.35715 547.89789 z"
         sodipodi:ry="8.3928576"
         sodipodi:rx="8.3928576"
         sodipodi:cy="547.89789"
         sodipodi:cx="441.96429"
         id="path2532"
         style="opacity:0.97000002;fill:none;fill-opacity:1;stroke:black;stroke-width:20.46800041;stroke-linecap:square;stroke-linejoin:miter;stroke-miterlimit:4;stroke-dasharray:none;stroke-opacity:1"
         sodipodi:type="arc" />
      <path
         transform="matrix(1.536168,0,0,1.61666,-295.3682,-435.0628)"
         d="M 406.07143 568.25507 A 15.714286 14.821428 0 1 1  374.64286,568.25507 A 15.714286 14.821428 0 1 1  406.07143 568.25507 z"
         sodipodi:ry="14.821428"
         sodipodi:rx="15.714286"
         sodipodi:cy="568.25507"
         sodipodi:cx="390.35715"
         id="path2536"
         style="opacity:0.97000002;fill:none;fill-opacity:1;stroke:black;stroke-width:5.46799994;stroke-linecap:square;stroke-linejoin:miter;stroke-miterlimit:4;stroke-dasharray:none;stroke-opacity:1"
         sodipodi:type="arc" />
    </g>
  </g>
</svg>
